X:1
T:Verily, Verily
T:Verily, Verily
T:James McGranahan
T:James McGranahan, 1878
T:Public Domain Courtesy of the Cyber Hymnal™
C:James McGranahan
Z:Public Domain
Z:Courtesy of the Cyber Hymnal™
%%score ( 1 2 ) ( 3 4 )
L:1/8
Q:1/4=103
M:4/4
K:F
V:1 treble 
V:2 treble 
V:3 bass 
V:4 bass 
V:1
 [CF]2 [CF]>[CG] [CF][CE][G,D][G,C] | [CF]2 [CG]2 [CA]4 | [EG]2 [EG][FA] [EG][CF][B,E][A,F] | %3
w: 1.~Oh, what a Sav- ior that He|died for me!|From con- dem- na- tion He hath|
w: 2.~All my in- i- qui- ties on|Him were laid,|All my in- debt- ed- ness by|
w: 3.~Though poor and need- y, I can|trust my Lord;|Though weak and sin- ful I be-|
w: 4.~Though all un- wor- thy, yet I|will not doubt;|For him that com- eth He will|
 [CG]2 [CA]2 [EB]4 | [CA]2 [_Ec]>[Ec] [DB][DA][DG][DF] | [CE]2 D2 [DB]4 | [Dd]2 [Fc][DB] [CA]2 G2 | %7
w: made me free;|“He that be- liev- eth on the|Son,” said He,|“Hath ev- er- last- ing|
w: Him was paid;|All who be- lieve on Him, the|Lord hath said,|“Hath ev- er- last- ing|
w: lieve His Word;|O gl- ad mes- sage! Ev- ery|child of God|“Hath ev- er- last- ing|
w: not cast out:|“He that be- liev- eth,” oh, the|good news shout!|“Hath ev- er- last- ing|
 [A,F]8 ||"^Refrain" [FA]>[GB] [Ac]2 [FA]>[EB] [Fc]2 | [Fd][Fc][EB][FA] [GB]4 | %10
w: life.”|||
w: life.”|||
w: life.”|||
w: life.”|||
 [EG]>[FA] [GB]2 [EG]>[FA] [EB]2 | [Ec][EB][FA][EG] [FA]4 | [CA]2 [_Ec]>[Ec] [DB][DA][DG][DF] | %13
w: |||
w: |||
w: |||
w: |||
 [CE]2 D2 [DB]4 | [Dd]2 [Fc][DB] [CA]2 G2 | [A,F]8 |] %16
w: |||
w: |||
w: |||
w: |||
V:2
 x8 | x8 | x8 | x8 | x8 | x2 D2 x4 | x6 (CB,) | x8 || x8 | x8 | x8 | x8 | x8 | x2 D2 x4 | %14
 x6 (CB,) | x8 |] %16
V:3
 [F,A,]2 [F,A,]>[F,B,] [C,A,][C,G,][B,,E,][B,,E,] | [A,,F,]2 [C,E,]2 F,4 | %2
w: ~ ~ ~ ~ ~ ~ ~|~ ~ ~|
 [C,G,]2 [C,C][C,C] [C,B,][C,A,][C,G,][C,F,] | [C,E,]2 F,2 [C,G,]4 | %4
w: ~ ~ ~ ~ ~ ~ ~|~ ~ ~|
 F,2 [A,,F,]>[A,,F,] [B,,F,][B,,F,][B,,G,][B,,G,] | G,2 [A,,^F,]2 [G,,G,]4 | %6
w: ~ ~ ~ ~ ~ ~ ~|~ ~ ~|
 [B,,F,]2 [A,,F,][B,,F,] [C,F,]2 [C,E,]2 | [F,,F,]8 || [F,C]>[F,C] [F,C]2 [F,C]>[G,C] [A,C]2 | %9
w: ~ ~ ~ ~ ~|~|“Ver- i- ly, ver- i- ly,|
 B,[A,C][G,C][F,C] [E,C]4 | [C,C]>[C,C] [C,C]2 [B,C]>[A,C] [G,C]2 | [C,C][C,C][C,C][C,C] [F,C]4 | %12
w: I say un- to you;|Ver- i- ly, ver- i- ly,”|mes- sage ev- er new!|
 F,2 [A,,F,]>[A,,F,] [B,,F,][B,,F,][B,,G,][B,,G,] | G,2 [A,,^F,]2 [G,,G,]4 | %14
w: “He that be- liev- eth on the|Son” ’tis true!|
 [B,,F,]2 [A,,F,][B,,F,] [C,F,]2 [C,E,]2 | [F,,F,]8 |] %16
w: “Hath ev- er- last- ing|life!”|
V:4
 x8 | x4 F,4 | x8 | x2 F,2 x4 | F,2 x6 | (C,B,,) x6 | x8 | x8 || x8 | B, x7 | x8 | x8 | F,2 x6 | %13
 (C,B,,) x6 | x8 | x8 |] %16

